X:1
T:2 Gesänge, Op.91
T:Geisliches Wiegenlied
T:2. Geistliches Wiegenlied
T:Johannes Brahms (1833-1897)
T:Lope de Vega (1562-1635) Emanuel Geibel (1815-1884), translator 
T:2 Gesänge, Op. 91
T:Creative Commons copyright waiver (CC0 1.0 Universal)
T:Creative Commons copyright waiver (CC0 1.0 Universal)
T:Creative Commons copyright waiver (CC0 1.0 Universal)
T:Creative Commons copyright waiver (CC0 1.0 Universal)
T:Creative Commons copyright waiver (CC0 1.0 Universal)
T:Creative Commons copyright waiver (CC0 1.0 Universal)
T:Creative Commons copyright waiver (CC0 1.0 Universal)
T:Creative Commons copyright waiver (CC0 1.0 Universal)
T:Creative Commons copyright waiver (CC0 1.0 Universal)
C:Johannes Brahms (1833-1897)
Z:Lope de Vega (1562-1635), Emanuel Geibel (1815.1884), translator
Z:Creative Commons copyright waiver (CC0 1.0 Universal)
%%score 1 ( 2 3 ) { ( 4 6 ) | ( 5 7 ) }
L:1/8
Q:1/4=95
M:6/8
K:F
V:1 treble nm="Singstimme.\nMezzo-soprano"
V:2 alto nm="Bratsche."
V:3 alto 
V:4 treble nm="Pianoforte."
V:6 treble 
V:5 bass 
V:7 bass 
V:1
"^Andante con moto." z6 | z6 | z6 | z6 | z6 | z6 | z6 | z6[Q:1/4=92] | z6[Q:1/4=88] | z6 | %10
w: ||||||||||
 z6[Q:1/4=86] | z6 | F3 A3 | c3 d3 | d3 c2 B | c3 F2 z |"^1" z6 | z2 z z2 F | _A6- | A3 G3 | %20
w: ||Die ihr|schwe- bet|um die- se|Pal- men||in|Nacht|_ und|
 F2 z z2[Q:1/4=92] z |"^1" z6 | d3 c2 B | c3 A2 z | _e3 d2 c | d3 B2 d | (=e3- e2 d) | c3- c2 B | %28
w: Wind,||ihr heil'- gen|En- gel,|stil- let die|Wip- fel! Es|schlum- * *|mert * mein|
 (A3 G3 | F3) E3 | (D6 | E2 F/E/) D2 E | F2 z z2 z |[Q:1/4=88] z6 | z6 | z6 | z6 | z6 | %38
w: Kind, _|_ es|schlum-|* * * mert mein-|Kind.||||||
 z2 z z2 E[Q:1/4=90] | c3 =B2 A | G2 F F2 A | d3- d2 c | =B3 A2 z | z2 c ^F2 G | %44
w: Ihr|Pal- men von|Beth- le- hem im|Win- * des-|brau- sen,|wie mögt ihr|
 ^G3[Q:1/4=92] A2 z | z2 d ^G2 A | ^A3 =B2 z | z2 z ^d3 | e3- e2 ^G | =B3[Q:1/4=96] A2 z | z6 | %51
w: heu- te|so zor- nig|sau- sen!|O|rauscht _ nicht|al- so,||
 d3- d2 =B | (A2 G) G2 =B | c6- | c3 A3 | F2 z z2 z | z6 | d3 c2 B | c3 A2 z | _e3 d2 c | %60
w: schwei- * get,|nei- * get euch|leis'|_ und|lind,||stil- let die|Wip- fel,|stil- let die|
 d3[Q:1/4=92] B2 d | (e3- e2 d) | c3- c2 B | (A3 G3 | F3)[Q:1/4=84] E3 |[Q:1/4=80] (D6 | %66
w: Wip- fel! Es|schlum- * *|mert _ mein|Kind, _|_ es|schlum-|
 E2[Q:1/4=78] F/E/) D2 E | F2 z z2 z | z6 | z6 | z6 | z6 | z6 ||[K:Ab][M:3/4][Q:1/4=92] F2 F3 F | %74
w: * * * mert mein-|Kind.||||||Der Him- mels-|
 _G2 G2 z2 | A2 A3 A | d2 d2 z2 | c2 c3 c | cG FE =D2 | EF AG FE | =D2 C2 z2 | _d2 c3 c | B2 B3 B | %83
w: kna- be|dul- det Be-|schwer- de;|ach, wie so|müd' * er * ward|vom * Leid * der *|Er- de,|ach, wie so|müd', wie so|
 (A3 _G) FE | F2 _GA B2- | B B cd cB |[Q:1/4=84] (=A2 _A4) |[Q:1/4=70] G2 z2 z2 | %88
w: müd' _ er *|ward vom * Leid,|_ vom Leid * der *|Er- *|de.|
[Q:1/4=66] z6[Q:1/4=60] ||[K:F][M:6/8][Q:1/4=90] F3 A2 A | c3 d3 | d3 c2 B | c3 F2 z | z6 | %94
w: |Ach, nun im|Schlaf ihm,|lei- se ge-|sänf- tigt,||
 z2 z z2 F | _A6- | A3 G3 |[Q:1/4=86] F2 z z2 z | z6 | d3 c2 B | c3 A2 z | _e3 d2 c | d3 B2 d | %103
w: die|Qual|_ zer-|rinnt,||stil- let die|Wip- fel,|stil- let die|Wip- fel, es|
 (=e3- e2 d) | c3- c2 B | (A3 G3 | F3) E3 | (D6 | E2 F/E/) D2 E | F2 z z2 z | z6 | z6 | z6 | z6 | %114
w: schlum- * *|mert _ mein|Kind, _|_ es|schlum-|* * * mert mein|Kind.|||||
 z6 | z6 |[Q:1/4=104]"^poco agitato" c3 =B2 A | G3 F2 z | d3 c2 =B | =B3 A2 z | z2 c ^F2 G | %121
w: ||Grim- mi- ge|Käl- te|sau- set her-|nie- der,|wo- mit nur|
 ^G3 A2 z | z2 d ^G2 A | ^A3 =B2 z |[Q:1/4=98] z2 z ^d3 | e3- e2 ^G | =B3 A2 z | z2 z ^c3 | %128
w: deck' ich|des Kind- leins|Glie- der!|O|all' _ ihr|En- gel,|die|
 d3- d2 =B | G3 G2 z | =c6 | A3- A2 A |[Q:1/4=88] F2 z z2 z | z6 | d3 c2 B | c3 A2 z | _e3 d2 c | %137
w: ihr _ ge-|flü- gelt|wan-|delt _ im|Wind,||stil- let die|Wip- fel,|stil- let die|
 d3 B2 d |[Q:1/4=86] (=e3- e2 d) | c3- c2 B |[Q:1/4=84] (A3 G3 | F3) E3 | (D6 | %143
w: Wip- fel, es|schlum- * *|mert _ mein|Kind, _|_ es|schlum-|
[Q:1/4=80] E2 F/E/) D2 E | F2 z z2 z | z6 | z6[Q:1/4=76] | z6 | z6 | z6 |[Q:1/4=70] z6 | %151
w: * * * mert mein|Kind.|||||||
 z6[Q:1/4=66] | z6 | z6 |[Q:1/4=60] z6 | z6 | z6 |] %157
w: ||||||
V:2
!p! (C2 A, F,2 A,) | C2 D C3- | C2 (A, F,2 A,) | C2 D C3 | B,2 B, B,2 C | B,2 A, G,2 (A, | %6
w: +) (Jo- sef, lie- ber|Jo- sef mein,|hilf mir wieg'n mein|Kind- lein sein,|Gott, der wird dein|Loh- ner sein, im|
 C2) A, F,2 (A, | G,2 F,) G,2!>(! (A, | F,3!>)! F,2)!>(! (A, | F,3!>)! F,2) z | z6 | %11
w: Him- mel- reich der|Jung- frau Sohn, Ma-|ri- a, Ma-|ri- a.)||
[K:treble] z2 (C!<(! FA!<)!c |!p! f6-) | f6- | f6- | f2[K:alto] (C, F,A,C) | F6- | F2 (C A,F,C,) | %18
w: |||||||
!<(! (F,6!<)! |!>(! E,6)!>)! | F,2 z z2 (F, | A,2 C!<(! F3-)!<)! |!>(! F6-!>)! | %23
w: |||||
 F2 (F, A,C!<(!F)!<)! |!>(! G6-!>)! | G2[K:treble] (D GBd) | (g2 B g2 f) | (e2 G e2 d) | %28
w: |||||
[K:alto] (c2 E) (B2 E) | (A2 C) (G2 C) | (F2 A,) z2 z | (G2 C) z2 z | %32
w: ||||
[K:treble]"_dolce espress." (c2 A F2 A) | (c2 d c3-) | c[K:alto] (CA, F,2 A,) | (C2 D C3-) | %36
w: ||||
 C2 z!pp! (D3 | C6-) | C z!p! (C, E,G,C) | (E3 D2 C) | (=B,3 A,2) z | (F3- F2 E) | %42
w: ||||||
 (D3 C2)!<(! (c!<)! |!>(! ^F2 G)!>)! z2 z | z"_poco cresc." (^F,A, D^F)!<(! (d!<)! | %45
w: |||
!>(! ^G2 A)!>)! z2 z | z (^G,=B, E^G=B) | (^^F2 ^G) z2 (=B | ^A2 =B) z2!f!!<(! (e-!<)! | %49
w: ||||
!>(! e2!>)! ^c"_dim.       poco   a   poco" A2 c) | (e2 ^f) e3 | z (d=B G2 B) | (d2 e) d3 | %53
w: ||||
!p! z (cA C!<(!A,C,!<)! |!>(! A,CA!>)! d3) | z (cA C!<(!A,C,!<)! |!>(! A,C!>)!A!<(! d3-)!<)! | %57
w: ||||
!>(! d2 z z2 z!>)! | z (CF Ac_e-) | e2 z z2 z |[K:treble] z (DG Bd!<(!g-)!<)! | %61
w: ||||
!>(! (g2 B g2 f)!>)! | (=e2 G e2 d) |[K:alto] (c2 E) (B2 E) | (A2 C) (G2 C) | (F2 A,) z2 z | %66
w: |||||
 (G2 C) z2 z |!p! (c2 A F2 A) | (c2 d c3-) | c (CA, F,2 A,) | (C2 D C3-) | C2 z!pp! (D3 | C6) || %73
w: |||||||
[K:Ab][M:3/4]!p! (FEDCB,A,) | (3(DB,D) (3(B,_G,B,) (3(G,E,G,) | (A_GFEDC) | %76
w: |||
 (3(A,DF) (3(F,B,D) (3(D,_G,B,) | z (B=A_AGF) | (=E_E=DC-C=B,) |!<(! (C=D!<)!!>(! C!>)!B, A,C) | %80
w: ||||
 (C=B,) C2 z2 | z"_poco cresc." (_B=A_AGF) | z (AG_GFE) | z (_GFEDC) | D2 DF _G2- | %85
w: |||||
!<(! (GF =E2 (=G2)!<)! |!>(! (G)=EFCA,F,)!>)! | C2 z!<(! (C B2)!<)! |!>(! A2!>)! G4 || %89
w: ||||
[K:F][M:6/8] F2 z z2 z | z2[K:treble] (A, FAd | f6-) | f2[K:alto] (C, F,A,C | %93
w: ||||
!<(!!>(! F6-)!<)!!>)! | F2 (C A,F,C,) |!<(! F,6!<)! |!>(! E,6!>)! | F,2 z z2 (F, | %98
w: |||||
!<(! A,2!<)!!>(! C!>)! F3-) | F6- | F2 (F,!<(! A,CF)!<)! |!>(! G6-!>)! | %102
w: ||||
 G2[K:treble] (D!<(! GBd)!<)! |!>(! (g2 B!>)! g2 f) | (e2 G e2 d) | (c2 E) (B2 E) | %106
w: ||||
[K:alto] (A2 C) (G2 C) | (F2 A,) z2 z | (G2 C) z2 z | (c2 A F2 A) | (c2 d c3-) | c (CA, F,2 A,) | %112
w: ||||||
 (C2 D C3-) | C2!pp! z!<(! (D3!<)! |!>(! C6-)!>)! | C z!p! (C, E,G,C) | (E3 D2 C) | (=B,3 A,2) z | %118
w: ||||||
 (E3 D2 =C) | (D3 C2)!<(! (c!<)! |!>(! ^F2!>)! G) z2 z |"_cresc." z (^F,A, D!<(!^F) (d!<)! | %122
w: ||||
!>(! ^G2 A)!>)! z2 z | z (^G,=B, E^G)!<(! (G!<)! |!>(! ^^F2!>)! ^G) z2!<(! (=B!<)! | %125
w: |||
!>(! ^A2!>)! =B) z2[K:treble]!f! (e- | e2 ^c A2 c) | (e2 ^f)"_dim." e3 | z (d=B G2 B) | (d2 e) d3 | %130
w: |||||
[K:alto] z (cA C!<(!A,C,!<)! |!>(! A,C!>)!!<(!A!<)!!>(! d3)!>)! | z (cA C!<(!A,C,!<)! | %133
w: |||
!>(! A,C!>)!A!>(! d3-)!>)! |!p! d2 z z2 z |[K:treble] z (CF Ac_e- | e2) z z2 z | %137
w: ||||
 z (DG B!<(!dg-)!<)! |!>(! (g2!>)! B g2 f) | (=e2 G e2 d) |[K:alto] (c2 E) (B2 E) | (A2 C) (G2 C) | %142
w: |||||
 (F2 A,) z2 z | (G2 C) z2 z | (c2 A F2 A) | (c2 d c3-) | c (CA, F,2 A,) | (C2 D) C3 | %148
w: ||||||
 z2 B, (B,2 C) | (B,2 A, G,2) A, | (C2 A, F,2 A,) | (G,2 F, G,2)!>(! (A, | F,3-)!>)! F,2!>(! (A, | %153
w: |||||
 F,3-)!>)! F,2 z | z6 | C6 |!pp!!<(!!>(! !fermata![A,F]6!<)!!>)! |] %157
w: ||||
V:3
 x6 | x6 | x6 | x6 | x6 | x6 | x6 | x6 | x6 | x6 | x6 |[K:treble] x6 | x6 | x6 | x6 | %15
 x2[K:alto] x4 | x6 | x6 | x6 | x6 | x6 | x6 | x6 | x6 | x6 | x2[K:treble] x4 | x6 | x6 | %28
[K:alto] x6 | x6 | x6 | x6 |[K:treble] x6 | x6 | x[K:alto] x5 | x6 | x6 | x6 | x6 | x6 | x6 | x6 | %42
 x6 | x6 | x6 | x6 | x6 | =B3 x3 | E3 x3 | x6 | x6 | x6 | x6 | x6 | x6 | x6 | x6 | x6 | x6 | x6 | %60
[K:treble] x6 | x6 | x6 |[K:alto] x6 | x6 | x6 | x6 | x6 | x6 | x6 | x6 | x6 | x6 || %73
[K:Ab][M:3/4] x6 | x6 | x6 | x6 | x6 | x6 | x6 | x6 | x6 | x6 | x6 | x6 | x6 | x6 | x6 | x6 || %89
[K:F][M:6/8] x6 | x2[K:treble] x4 | x6 | x2[K:alto] x4 | x6 | x6 | x6 | x6 | x6 | x6 | x6 | x6 | %101
 x6 | x2[K:treble] x4 | x6 | x6 | x6 |[K:alto] x6 | x6 | x6 | x6 | x6 | x6 | x6 | x6 | x6 | x6 | %116
 x6 | x6 | x6 | x6 | x6 | x6 | x6 | x5 =B- | B3 x3 | E3 x2[K:treble] x | x6 | x6 | x6 | x6 | %130
[K:alto] x6 | x6 | x6 | x6 | x6 |[K:treble] x6 | x6 | x6 | x6 | x6 |[K:alto] x6 | x6 | x6 | x6 | %144
 x6 | x6 | x6 | x6 | x6 | x6 | x6 | x6 | x6 | x6 | x6 | x6 | x6 |] %157
V:4
 z6 | z6 | z (CE FA,E | C[I:staff +1]F,B, A,F,C,) | D,2[I:staff -1] z z2 z | z2 z z (B,D | %6
 E[I:staff +1]E,[I:staff -1]C[I:staff +1] A,D,F,) | (B,D,A, B,D,!>(![E,C]) | %8
 [F,A,]3-!>)! [F,A,]2!>(! [E,C] | [F,A,]3-!>)! [F,A,]2[I:staff -1] z | z2!p! (C F2 A | c6-) | %12
 c2 (A F2 A- | [FAc]3 [FAd-]3) | ([FBd]3 [FAc]2 [F-GB] | [FAc]3 [A,F]3) | ([B,B]3 [CA]2 [DG] | %17
 [CA]3 [A,F]3) |!<(! ([_A,D_A-]6!<)! |!>(! A3!>)! G3) | ([CF]3 [CF=A]3 | [FAc]3 [FAd-]3) | %22
 ([FBd]3 [FAc]2 [FGB] |!<(! [FAc]3 [CA]3) | [Gc_e]3 [GBd]2 [GAc] | [GBd]3 [DB]3!<)! | %26
!p!!>(! ([=eg]3-!>)! [eg]2 [df]) |!>(! ([ce]3- [ce]2 [Bd]) | ([Ac]3 [GB]3) | ([FA]3 [EG]3)!>)! | %30
 [DF]6 | [EG]6 | C3 z2 z | z6 | z (CE FA,E |[I:staff +1] CF,B, A,- [F,A,]2-) |[I:staff -1] z6 | %37
!>(! z6 | z6!>)! | z6 | z2 (D FAd) | ^G2 z z2 z | z2 (F Acf) | c2"_poco cresc" (G, C_EG) | %44
 z (c^F) z (C^F,) | z2 (A, D=FA) | z"_scen" (d^G) z (D^G,) | z (^G,=B, ^D^G=B) | %48
 z (^G,=B, E^G"_do"=B |!mf! [Ee]3)"_dim." (A!>(!^ce | [Aa]3)!p! (^C!>)!EA | [Dd]3) (G=Bd | %52
 [Gg]3) (=B,DG | [Cc]3) z2 z | z2 z (A,DF | [Cc]3) z2 z | z2 z (A,DF | ([FBd]3) [FAc]2 [FGB] | %58
 [FAc]3 [CA]2) z | ([Gc_e]3 [GBd]2 [GAc] | [GBd]3 [DB]2)!<(! z!<)! |!>(! ([=eg]3-!>)! [eg]2 [df]) | %62
 ([ce]3- [ce]2 [Bd]) | ([Ac]3 [GB]3) | ([FA]3 [EG]3) | [DF]6 | [EG]6 |!p! ([A,F]2 c A2 F- | %68
 [FA]6) | z2[K:bass] C A,F,A,- |!>(! [F,A,-]6 | A,2!>)! z!pp! ([F,A,]3 | C3- C2 B,) || %73
[K:Ab][M:3/4] (3z (A,F, (3A,F,A, (3F,D,F,)!p! | (3(_GDF(3EB,D (3C_G,B,) | %75
 (3(E,A,E) (3(AA,_G(3FA,E) | (3(DA,C(3B,F,A,(3_G,D,F,) |[K:bass] (3(=G,C,C (3F,C,C (3_E,C,C | %78
 (3G,C,C (3F,C,C G,2) |!<(! z2!<)!!>(! (3([E,C]EB,)!>)![K:treble] (3([A,=D]AC) | %80
!<(! (3(G,G=D (3G,G=E (3CcF)!<)! |"_poco cresc." (3(B,_dG (3cCA (3cCF) | (3(BB,F (3BB,_G (3BB,E) | %83
 (3(AA,E (3FB,E (3FD[CE]) |!<(! (3(FA,D (3_GB,D (3BB,G) | (3(BB,F (3BC=E!<)! (3BC=G) | %86
!>(! (3(=ACG (3_ACF (3AA,C)!>)! | (3(FG,=D (3=EG,C (3_DG,B,) | x2 (3z (=B,C (3=EGc-) || %89
[K:F][M:6/8] (c2 A F2 A | [FAc]3 [FAd-]3) | ([FBd]3 [FAc]2 [FGB] | [FAc]3 [A,F]3) | %93
 ([B,FB]3 [CA]2 [DFG] | [CFA]3 [A,F]3) | (_A6- | A3 G3) | ([CF]3 [CF=A]3 | [FAc]3 [FAd-]3) | %99
 ([FBd]3 [FAc]2 [F-GB] | [FAc]3 [CA]3) |!<(! ([Gc_e]3 [GBd]2 [G-Ac] | [GBd]3 [DB]3)!<)! | %103
!>(! ([=eg]3-!>)! [eg]2 [df]) | ([ce]3- [ce]2!>(! [Bd]) | ([Ac]3 [GB]3) | ([FA]3 [EG]3)!>)! | %107
 [DF]6 | [EG]6 | C2 z z2 z | z6 | z (CE FA,E | C[I:staff +1]F,B,!>(! A,- [F,A,]2-)!>)! | %113
 [F,A,]2[I:staff -1] z!pp![I:staff +1] ([F,A,]3 | [E,G,C]6) |[I:staff -1] z6 |"^poco agitato" z6 | %117
 z2 (D FAd) | ^G2 z z2 z | z2 (F Acf) | c2"_cresc." (G, C_EG) | z (c^F) z (C^F,) | z2 (A, D=FA) | %123
 z (d^G) z (D^G,) | z!<(! (^G,=B, ^D^G=B) | z (^G,=B, E^G=B!<)! | [Ee]3) (A^ce | %127
 [Aa]3)"_dim." (^CEA | [Dd]3)!>(! (G=Bd | [Gg]3) (=B,DG!>)! |!p! [Cc]3) z2 z | z2 z (A,DF | %132
 [Cc]3) z2 z | z2 z (A,DF | ([FBd]3) [FAc]2 [FGB] | [FAc]3 [CA]2) z | ([Gc_e]3 [GBd]2 [GAc] | %137
 [GBd]3 [DB]2) z |!>(! ([=eg]3-!>)! [eg]2 [df]) | ([ce]3- [ce]2 [Bd]) |!>(! ([Ac]3 [GB]3) | %141
 ([FA]3 [EG]3)!>)! | [DF]6 | [EG]6 | [A,C]3 z2 z | z6 | z (CE FA,E | C[I:staff +1]F,B, A,F,C,) | %148
 D,2[I:staff -1] z z2 z | z2 z z (B,D | E[I:staff +1]E,C A,D,F,) | %151
 (B,D,A, B,D,!<(!!>(![E,C])!<)!!>)! | [F,A,]3 [F,A,]2!<(!!>(! ([E,C]!<)!!>)! | %153
 [F,A,]3) [F,A,]2[I:staff -1] z | z2 C F2 A | c3 f3 | !fermata![Aca]6 |] %157
V:5
 z6 | z2 z z!p! (F,,A,, | C,3) (D,2 C,) | (A,,2 B,, F,,2 A,,) | B,,2 z z2 z | %5
 z (D,,^F,, G,,2 =F,,) | C,,3 D,,3 | (G,,2 D,, G,,2) (C,, | F,,2 A,, C,2) (C,, | F,,2 A,, C,2 F, | %10
"_( +) Altes Lied.)" A,6-) | A,6- | A,2 (C A,2 F, | A,2 F, D,2 F,) | (D,2 B,, D,2 F,) | %15
 (C,2 F,, C,2 F,) | (D,2 B,, D,2 F,) | (C,2 F,, C,2 F,) | (=B,,2 F,, B,,2 F,) | %19
 (_B,,2 F,, B,,2 F,) | (=A,,2 F,, F,2 C, | A,,2 F,, D,,2 F,,) | (B,,,2 B,, D,2 F,) | %23
 ([F,,C,]2 A,, F,,2 A,,) | (C,,2 C, _E,2 G,) | ([G,,D,]2 B,, G,,2 B,,) | (C,,2 G,, C,2 G,,) | %27
 (C,,2 G,, C,2 G,,) | (C,,2 C, C,,2 C,) | (C,,2 C, C,,2 C,) | (C,,2 F,, C,2 F,,) | %31
 (C,,2 G,, C,2 C,,) | F,,3 z2 z | z2 z z (F,,A,, | C,3) (D,2 C, | A,,2 B,, F,,2 A,,) | %36
 [F,A,]2 z ([F,A,]3 | [E,G,C]6) | E,2 G, C2 z | z2!p! (A,, C,E,A,) | D,2 z z2 z | %41
 z2 (E,, ^G,,=B,,E,) | F,,2 z z2 z | (E,,3 _E,,3 | D,,3 D,3) | (^F,,3 =F,,3 | E,,3 E,3) | %47
 [^D,,^D,]3 [=B,,,=B,,]3 | ([^G,,,^G,,]3 E,,2 D,,) |!ped! (^C,,^C,E, A,2 E,) | %50
 (^C,A,D, A,,3)!ped-up! |!ped! (=B,,,=B,,D, G,2 D,) | (=B,,G,C, G,,3)!ped-up! | %53
!ped! (A,,,A,,C, A,2 F, | C,2 A,, F,,2 A,,)!ped-up! |!ped! (A,,,A,,C, A,2 F, | %56
 C,2 A,, F,,2 D,,)!ped-up! | (B,,,2 B,, D,2 F,) | ([F,,C,]2 A,, F,,2 A,,) | (C,,2 C, _E,2 G, | %60
 [G,,D,]2 B,, G,,2 B,,) | (C,,2 G,,"^dim." C,2 G,,) | (C,,2 G,, C,2 G,,) | (C,,2 C, C,,2 C,) | %64
 (C,,2 C, C,,2 C,) | (C,,2 F,, C,2 F,,) | (C,,2 G,, C,2 C,,) | F,,2 z z2 (C | A,2 F, A,2 C | %69
 F2) z z2 (C, | A,,F,,D,, F,,A,,C,) | (F,2 C, A,,2 F,, | C,,2 E,, G,,2 C,) || %73
[K:Ab][M:3/4] (F,,4 D,,2 | [B,,,B,,]2 _G,,2 E,,2) | (C,,2!<(! C,2 _G,,2 | %76
 F,,2 D,,2 [B,,,B,,]2)!<)! | =E,,2 (F,,^F,,G,,A,,) | G,,2 (A,,F,,G,,G,,,) | %79
 ([C,,C,][_B,,,_B,,] [E,,,E,,]2 [F,,,F,,]2) | [G,,,G,,]2 ([C,,C,]_B,,A,,F,,) | (=E,,=E,F,^F,G,A,) | %82
 (=D,B,,E,=E,F,_G,) | (C,A,,D,_G,A,A,,) | (D,C,B,,A,,_G,,F,,) | (E,,D,, C,,2 [=E,,C,-]2) | %86
 C,4 C,2 | [C,,C,]6- | [C,,C,]2 C,4 ||[K:F][M:6/8]!ped! (!arpeggio![F,,=A,]2 C A,2 F,!ped-up! | %90
 A,2 F, D,2 F,) | (D,2 B,, D,2 F,) | (C,2 F,, C,2 F,) | (D,2 B,, D,2 F,) | (C,2 F,, C,2 F,) | %95
 (=B,,2 F,, B,,2 F,) | (_B,,2 F,, B,,2 F,) | (=A,,2 F,, F,2 C, | A,,2 F,, D,,2 F,,) | %99
 (B,,,2 B,, D,2 F, | C,2 F,, C,2 F,) | (C,,2 C, _E,2 G, | D,2 G,, D,2 G,) | (C,,2 G,, C,2 G,,) | %104
 (C,,2 G,, C,2 G,,) | (C,,2 C, C,,2 C,) | (C,,2 C, C,,2 C,) | (C,,2 F,, C,2 F,,) | %108
 (C,,2 G,, C,2 C,,) | F,,2 z z2 z | z2 z z (F,,A,, | C,3) (D,2 C, | A,,2 B,, F,,2 A,,) | %113
 (C,2 A,, F,,2 A,,) | (C,,2 E,, G,,2 C, | E,2 G, C2) z | z2!p! (A,, C,E,A,) | D,2 z z2 z | %118
 z2 (E,, ^G,,=B,,E,) | F,,2 z z2 z | (E,,3 _E,,3 | D,,3 D,3) | (^F,,3 =F,,3 | E,,3 E,3) | %124
 ([^D,,^D,]3 [=B,,,=B,,]3 | [^G,,,^G,,]3 E,,2 =D,,) | (^C,,!f!^C,E, A,2 E,) | (^C,A,D, A,,3) | %128
 (=B,,,=B,,D, G,2 D,) | (=B,,G,C, G,,3) | (A,,,A,,C, A,2 F,) | (C,2 A,, F,,2 A,,) | %132
 (A,,,A,,C, A,2 F, | C,2 A,, F,,2 D,,) | (B,,,2 B,, D,2 F, | [F,,C,]2 A,, F,,2 A,,) | %136
 (C,,2 C, _E,2 G, | [G,,D,]2 B,, G,,2 B,,) | (C,,2 G,, C,2 G,,) | (C,,2 G,, C,2 G,,) | %140
 (C,,2 C, C,,2 C,) | (C,,2 C, C,,2 C,) | (C,,2 F,, C,2 F,,) | (C,,2 G,, C,2 C,,) | F,,3 z2 z | %145
 z2 z z!p! (F,,A,, | C,3) (D,2 C, | A,,2 B,, F,,2 A,,) | B,,2 z z2 z | z (D,,^F,, G,,2 =F,,) | %150
 C,,3 D,,3 | (G,,2 D,, G,,2) (C,, | F,,2 A,, C,2) (C,, |!ped! F,,2 A,, C,2 F,) | A,6- | %155
 (A,2 F, C,2 A,,) | !fermata![F,,,F,,]6!ped-up! |] %157
V:6
 x6 | x6 | x6 | x6 | x6 | x6 | x6 | x6 | x6 | x6 | x6 | x6 | x3 F3- | x6 | x6 | x6 | x6 | x6 | x6 | %19
 [B,_D]6 | x6 | x6 | x6 | x6 | x6 | x6 | B6 | G6 | E6 | C6 | A,6 | C3 B,3 | A,3 x3 | x6 | x6 | x6 | %36
 x6 | x6 | x6 | x6 | x6 | x6 | x6 | x6 | x6 | x6 | x6 | x6 | x6 | x6 | x6 | x6 | x6 | x6 | x6 | %55
 x6 | x6 | x6 | x6 | x6 | x6 | B6 | G6 | E6 | C6 | A,6 | (C3 B,3) | x6 | x6 | x2[K:bass] x2 F,2- | %70
 x6 | x6 | [E,G,]6 ||[K:Ab][M:3/4] x6 | (3_GDF (3EB,D (3C_G,B, | x2 (3AA,_G (3FA,E | %76
 (3DA,C (3B,F,A, (3_G,D,F, |[K:bass] x6 | x6 | x4[K:treble] x2 | x6 | x6 | x6 | x6 | x6 | x6 | x6 | %87
 x6 | (3C=E,F,- F,[I:staff +1](=E,G,_B,) ||[K:F][M:6/8] x6 | x6 | x6 | x6 | x6 | x6 | %95
[I:staff -1] [_A,D]6 | [B,_D]6 | x6 | x6 | x6 | x6 | x6 | x6 | B6 | G6 | E6 | C6 | A,6 | C3 B,3 | %109
 A,2 x4 | x6 | x6 | x6 | x6 | x6 | x6 | x6 | x6 | x6 | x6 | x6 | x6 | x6 | x6 | x6 | x6 | x6 | x6 | %128
 x6 | x6 | x6 | x6 | x6 | x6 | x6 | x6 | x6 | x6 | B6 | G6 | E6 | C6 | A,6 | C3 B,3 | x6 | x6 | %146
 x6 | x6 | x6 | x6 | x6 | x6 | x6 | x6 | x6 | (c2 A A2 F) | x6 |] %157
V:7
 x6 | x6 | x6 | x6 | x6 | x6 | x6 | x6 | x6 | x6 | x6 | x6 | x6 | x6 | x6 | x6 | x6 | x6 | x6 | %19
 x6 | x6 | x6 | x6 | x6 | x6 | x6 | x6 | x6 | x6 | x6 | x6 | x6 | x6 | x6 | x6 | x6 | %36
 (C,2 A,, F,,2 A,,) | C,,2 E,, G,,2 C, | x6 | x6 | x6 | x6 | x6 | x6 | D,,6 | x6 | E,,6 | x6 | x6 | %49
 x6 | x6 | x6 | x6 | x6 | x6 | x6 | x6 | x6 | x6 | x6 | x6 | x6 | x6 | x6 | x6 | x6 | x6 | x6 | %68
 x6 | x6 | x6 | x6 | x6 ||[K:Ab][M:3/4] x6 | x6 | x6 | x6 | x6 | x6 | x6 | x6 | x6 | x6 | x6 | x6 | %85
 x6 | (F,,2 _A,,2 F,,2) | x6 | x6 ||[K:F][M:6/8] x6 | x6 | x6 | x6 | x6 | x6 | x6 | x6 | x6 | x6 | %99
 x6 | x6 | x6 | x6 | x6 | x6 | x6 | x6 | x6 | x6 | x6 | x6 | x6 | x6 | x6 | x6 | x6 | x6 | x6 | %118
 x6 | x6 | x6 | D,,6 | x6 | E,,6 | x6 | x6 | x6 | x6 | x6 | x6 | x6 | x6 | x6 | x6 | x6 | x6 | x6 | %137
 x6 | x6 | x6 | x6 | x6 | x6 | x6 | x6 | x6 | x6 | x6 | x6 | x6 | x6 | x6 | x6 | x6 | x6 | x6 | %156
 x6 |] %157

